svg/color/0x0.ai.svg

<svg width="64" height="65" viewBox="0 0 64 65" fill="none" xmlns="http://www.w3.org/2000/svg">
<g clip-path="url(#clip0_28696_5963)">
<rect y="0.303711" width="64" height="64" rx="32" fill="white"/>
<path d="M42.7262 17.4827C42.9484 17.4359 43.2005 17.3711 43.4573 17.3242C44.5104 17.1142 45.5505 17.1616 46.573 17.4827C48.6139 18.1296 49.9585 19.5009 50.6766 21.4629C51.0027 22.3499 51.068 23.2837 50.9246 24.2263C50.8288 24.8604 50.6419 25.4645 50.3722 26.0431C50.307 26.1802 50.3158 26.2571 50.4639 26.3173C52.2004 27.033 53.1183 28.4165 53.6707 30.1089C54.0056 31.133 54.0668 32.1912 53.9363 33.2321C53.7189 34.9158 53.0836 36.441 51.7126 37.5595C51.3647 37.8464 50.9381 38.0478 50.5244 38.2538C50.324 38.3568 50.294 38.4424 50.3892 38.631C50.8112 39.4879 51.0245 40.3963 50.981 41.3429C50.8723 43.751 49.7275 45.5458 47.5867 46.7111C46.6988 47.1954 45.7244 47.4054 44.7149 47.4095C44.0314 47.4135 43.3527 47.3238 42.6563 47.0751C42.6998 47.2938 42.7392 47.4737 42.7697 47.6536C43.0612 49.2772 42.7086 50.7468 41.7208 52.084C40.9116 53.185 39.815 53.8493 38.4963 54.1704C37.787 54.3416 37.0648 54.3289 36.3379 54.2387C35.1108 54.0842 34.0924 53.5403 33.2004 52.7262C33.0523 52.5931 33 52.4433 33 52.2506C33.0041 49.9883 33.0088 47.726 33 45.4596C33 45.2282 33.0523 45.1425 33.3044 45.1512C33.8703 45.1686 34.4356 45.1599 35.0057 45.1553C35.1537 45.1553 35.236 45.2021 35.3101 45.3265C36.2979 46.9761 38.5563 47.2631 39.892 45.8878C41.3799 44.3539 40.7364 41.9886 38.843 41.2821C37.4938 40.7764 36.0017 41.325 35.2789 42.5672C35.2442 42.6314 35.1526 42.7043 35.092 42.7043C34.7265 42.7003 34.361 42.687 33.9955 42.6615C33.4343 42.6227 33.0035 41.9163 33.0035 41.4916C33.0076 39.1824 33.0035 36.8727 33.0076 34.5594C33.0076 33.8825 33.6082 33.3212 34.3087 33.3126C35.018 33.3085 35.6186 33.8778 35.6227 34.5681C35.6268 35.4638 35.6486 36.3589 35.6186 37.2545C35.5839 38.1716 36.4196 39.1911 37.4856 39.2166C38.3647 39.238 39.2391 39.2339 40.1182 39.2252C40.3357 39.2252 40.4491 39.2895 40.5619 39.4821C41.1578 40.4935 42.2285 41.0675 43.4385 40.8962C44.7219 40.7163 45.5623 39.9791 45.8667 38.7409C46.2974 37.0144 45.0398 35.4545 43.4344 35.2879C42.1727 35.1548 41.2236 35.6564 40.5578 36.6973C40.4708 36.8345 40.3792 36.8987 40.214 36.886C39.8485 36.8646 39.4789 36.8773 39.1175 36.8431C38.4993 36.783 37.995 36.2177 37.995 35.605C37.9909 33.4028 37.9909 31.2047 37.995 29.0026C37.995 28.4159 38.4434 27.7088 39.4095 27.7088C39.6663 27.7088 39.9231 27.7216 40.1752 27.7048C40.3668 27.6921 40.4755 27.7603 40.5754 27.9235C40.9321 28.5189 41.4416 28.9517 42.1074 29.1704C43.0865 29.4874 44.0179 29.3717 44.84 28.7422C46.0976 27.7783 46.315 26.0002 45.3489 24.7661C44.3047 23.4376 42.2984 23.2924 41.089 24.4704C40.8628 24.6932 40.6977 24.9802 40.4885 25.2244C40.4273 25.2926 40.3057 25.3441 40.2099 25.3488C39.4136 25.3574 38.6127 25.3487 37.8164 25.3574C37.351 25.3615 36.8897 25.4344 36.5024 25.7133C35.95 26.1119 35.6233 26.6303 35.6233 27.3241V29.9891C35.6233 30.7175 35.0403 31.2961 34.3093 31.2915C33.5912 31.2875 33.0082 30.7129 33.0082 29.9978V23.2068C33.0082 22.483 33.4954 21.9599 34.2352 21.8997C34.2529 21.8997 34.2658 21.8957 34.2828 21.8957C34.5614 21.8957 34.8746 21.8187 35.1097 21.9171C35.323 22.0114 35.4493 22.2984 35.6145 22.4957C36.5283 23.584 38.2342 23.8241 39.4048 23.0442C40.7188 22.1746 40.9368 20.6575 40.5102 19.6253C39.7533 17.8172 37.4644 17.2519 35.9671 18.5329C35.715 18.7516 35.5275 19.0426 35.2971 19.2914C35.2319 19.3643 35.1232 19.4372 35.0362 19.4372C34.4403 19.45 33.8398 19.4413 33.2392 19.4459C33.0823 19.4459 33.0088 19.4071 33.0088 19.2359C33.0129 16.9093 33.0088 14.5828 33.0176 12.2563C33.0176 12.1579 33.0917 12.0335 33.1657 11.9606C34.0707 11.0568 35.1632 10.5251 36.4384 10.3585C38.2924 10.1184 39.902 10.6715 41.2207 11.9479C42.2779 12.972 42.8526 14.2443 42.8614 15.7226C42.8573 16.3053 42.7703 16.8793 42.7262 17.4833V17.4827Z" fill="#37D1CC"/>
<path d="M13.6768 38.4208C13.2554 38.1766 12.8116 37.9793 12.4336 37.6922C11.6904 37.1396 11.1299 36.4197 10.7471 35.5795C10.4431 34.9152 10.2388 34.2254 10.1038 33.5015C9.97349 32.7944 9.9776 32.0832 10.0516 31.3975C10.1602 30.4161 10.473 29.4694 10.9772 28.5997C11.4251 27.8283 12.0115 27.1773 12.7811 26.7016C13.0071 26.5604 13.2636 26.4661 13.5072 26.3504C13.6592 26.2775 13.6897 26.1959 13.6117 26.0333C13.29 25.3562 13.1251 24.6364 13.0335 23.8951C12.9337 23.0769 13.081 22.2881 13.2988 21.5127C13.5072 20.7715 13.9292 20.1199 14.4117 19.5158C15.068 18.6929 15.9027 18.0801 16.8765 17.686C17.4676 17.4459 18.0934 17.3087 18.7414 17.2445C19.6107 17.1589 20.4454 17.27 21.3318 17.5361C21.2884 17.322 21.2402 17.1374 21.2144 16.9534C21.1187 16.2851 21.0882 15.6248 21.2015 14.9478C21.3365 14.1509 21.6406 13.4311 22.0925 12.7708C22.5621 12.0811 23.1661 11.5111 23.9052 11.0996C24.5227 10.7524 25.1831 10.5343 25.8827 10.3925C26.6693 10.234 27.443 10.3022 28.1908 10.4828C28.9386 10.6628 29.66 10.9712 30.2511 11.4983C30.3339 11.5713 30.4378 11.6141 30.5253 11.687C30.8293 11.9312 31.0037 12.2014 30.9949 12.6383C30.9602 14.8066 30.982 16.9748 30.982 19.1472C30.982 19.3586 30.8777 19.4643 30.6691 19.4643C30.1126 19.4643 29.552 19.4602 28.9956 19.4683C28.8523 19.4683 28.7567 19.4295 28.6868 19.3011C28.3827 18.7612 27.9173 18.3758 27.3696 18.1015C26.8395 17.8359 26.2567 17.8058 25.6785 17.8874C25.1437 17.9644 24.6483 18.179 24.2615 18.5471C23.705 19.0696 23.3229 19.6957 23.2835 20.4879C23.2489 21.1435 23.3833 21.7604 23.7749 22.2876C24.1658 22.8147 24.6747 23.2001 25.3439 23.4015C26.144 23.6416 26.8871 23.5213 27.5956 23.1747C28.0869 22.9345 28.4303 22.5104 28.7214 22.0521C28.752 22.0052 28.7995 21.9276 28.8388 21.9276C29.2732 21.945 29.7299 21.9022 30.1384 22.0133C30.7337 22.1759 30.9773 22.6087 30.982 23.2215C30.9996 25.4754 30.9949 27.7334 30.9861 29.9873C30.982 30.934 30.0604 31.5341 29.1646 31.2002C28.7302 31.0376 28.3646 30.5017 28.3646 30.0133C28.3604 29.1349 28.3516 28.2525 28.3687 27.374C28.3863 26.4997 27.912 25.9557 27.1906 25.5484C26.8777 25.3684 26.5296 25.3811 26.1997 25.3724C25.4043 25.347 24.6043 25.3638 23.8089 25.3684C23.6393 25.3684 23.5571 25.3128 23.4614 25.1583C22.9484 24.3441 22.2358 23.8129 21.2273 23.7059C20.7231 23.6503 20.2365 23.7146 19.7927 23.9113C19.019 24.2539 18.4626 24.8325 18.1843 25.6427C17.9102 26.4395 18.0194 27.2195 18.4232 27.9307C18.7361 28.4793 19.201 28.8994 19.8185 29.1517C20.5793 29.4601 21.3312 29.43 22.0614 29.1343C22.6525 28.8942 23.1309 28.4747 23.4655 27.9134C23.5219 27.819 23.6739 27.7293 23.7831 27.7247C24.1787 27.716 24.5831 27.712 24.97 27.7716C25.5176 27.8532 25.9262 28.3202 25.9655 28.8601C26.0131 29.5411 26.0131 30.2269 26.0178 30.9126C26.0219 31.298 25.9784 31.688 25.9784 32.074C25.9784 32.5456 26.0131 33.0166 26.0178 33.4882C26.0178 33.8696 25.9872 34.2469 25.9831 34.6282C25.979 34.8898 26.0007 35.1554 26.0048 35.4169C26.0136 35.7855 25.9356 36.1194 25.6873 36.4197C25.409 36.7583 25.0568 36.8827 24.6266 36.8653C24.3137 36.8526 24.0008 36.874 23.6833 36.8566C23.6093 36.8526 23.5048 36.7884 23.4661 36.7195C23.0576 36.017 22.423 35.5842 21.6711 35.3266C21.3887 35.2323 21.0583 35.241 20.7495 35.2624C20.0193 35.3052 19.38 35.5882 18.8676 36.1067C18.3199 36.6639 18.0071 37.341 18.0376 38.1164C18.0851 39.3246 18.6809 40.2158 19.798 40.7129C20.4977 41.0259 21.2367 41.0086 21.971 40.743C22.6578 40.4947 23.1186 40.0057 23.5013 39.4317C23.597 39.2905 23.6751 39.2604 23.8189 39.2604C24.5925 39.2645 25.3662 39.2731 26.1398 39.2564C26.4357 39.2477 26.7439 39.2095 27.0268 39.1192C27.6396 38.9219 28.0611 38.5024 28.2653 37.8982C28.3305 37.7055 28.361 37.4914 28.3651 37.2854C28.3739 36.407 28.361 35.5245 28.3739 34.6461C28.3827 34.0634 28.678 33.6092 29.2039 33.4078C29.7992 33.181 30.4513 33.3609 30.8123 33.9946C30.982 34.2943 30.999 34.6033 30.999 34.9245C30.999 37.0713 31.0031 39.2135 30.9949 41.3604C30.9949 41.9304 30.743 42.3887 30.1995 42.6074C29.9477 42.7104 29.6389 42.6676 29.3607 42.7145C28.9392 42.7874 28.7261 42.586 28.4913 42.2515C28.2654 41.9304 27.909 41.6729 27.5657 41.4588C27.1049 41.1671 26.5701 41.0734 26.0136 41.1029C25.3615 41.1417 24.7968 41.3685 24.2926 41.7886C23.4884 42.4529 23.2231 43.3186 23.3017 44.3041C23.3452 44.8399 23.5929 45.3109 23.941 45.7397C24.3454 46.2368 24.8667 46.5452 25.4795 46.6824C26.3923 46.8838 27.2223 46.7426 27.966 46.117C28.2659 45.8688 28.5048 45.6026 28.7091 45.2855C28.7526 45.2172 28.8788 45.1657 28.9656 45.1657C29.5567 45.157 30.1437 45.1657 30.7348 45.157C30.9174 45.153 30.9913 45.2126 30.9866 45.4012C30.9778 45.8167 30.9825 46.2328 30.9825 46.6523C30.9825 48.4132 30.9649 50.1746 30.9955 51.9315C31.0043 52.3857 30.8387 52.6855 30.5129 52.9598C30.0087 53.3839 29.4481 53.7311 28.8306 53.9539C28.4004 54.1125 27.9308 54.1807 27.47 54.2537C26.9352 54.3352 26.4052 54.3092 25.8663 54.2322C25.1666 54.1339 24.5321 53.9024 23.9363 53.5639C22.7799 52.9082 21.9845 51.9442 21.502 50.7186C21.1674 49.8703 21.0412 49.0005 21.1762 48.1007C21.2156 47.8224 21.2719 47.5481 21.3154 47.2738C21.3242 47.2223 21.3112 47.1708 21.3066 47.1193C18.6768 47.7963 16.3647 47.3166 14.5602 45.2508C12.7476 43.1855 12.5868 40.8674 13.678 38.4202L13.6768 38.4208Z" fill="#BFBFBF"/>
</g>
<rect x="0.5" y="0.803711" width="63" height="63" rx="31.5" stroke="#070B14" stroke-opacity="0.15"/>
<defs>
<clipPath id="clip0_28696_5963">
<rect y="0.303711" width="64" height="64" rx="32" fill="white"/>
</clipPath>
</defs>
</svg>

<svg xmlns="http://www.w3.org/2000/svg" width="64" height="65" fill="none" viewBox="0 0 64 65"><g clip-path="url(#0x0_ai_svg-a)"><rect width="64" height="64" y=".304" fill="#fff" rx="32"/><path fill="#37D1CC" d="M42.726 17.483c.222-.047.474-.112.731-.159a6.2 6.2 0 0 1 3.116.159c2.04.647 3.386 2.018 4.104 3.98.326.887.391 1.82.248 2.763a6.6 6.6 0 0 1-.553 1.817c-.065.137-.056.214.092.274 1.736.716 2.654 2.1 3.207 3.792.335 1.024.396 2.082.265 3.123-.217 1.684-.852 3.209-2.223 4.328-.348.286-.775.488-1.189.694-.2.103-.23.188-.135.377.422.857.636 1.765.592 2.712-.109 2.408-1.254 4.203-3.394 5.368-.888.484-1.863.694-2.872.699a5.9 5.9 0 0 1-2.059-.335c.044.219.083.399.114.579.291 1.623-.061 3.093-1.05 4.43-.808 1.101-1.905 1.765-3.224 2.086-.709.172-1.431.159-2.158.069-1.227-.155-2.246-.699-3.138-1.513a.59.59 0 0 1-.2-.475c.004-2.263.009-4.525 0-6.791 0-.232.052-.318.304-.309.566.018 1.132.009 1.702.004.148 0 .23.047.304.172.988 1.65 3.246 1.936 4.582.56 1.488-1.533.844-3.898-1.049-4.605a2.925 2.925 0 0 0-3.564 1.285c-.035.064-.126.137-.187.137a19 19 0 0 1-1.096-.043c-.562-.038-.992-.745-.992-1.17.004-2.309 0-4.618.004-6.932 0-.676.6-1.238 1.3-1.246.71-.005 1.31.565 1.315 1.255.004.896.026 1.79-.004 2.687-.035.917.8 1.936 1.867 1.962.879.021 1.753.017 2.632.008.218 0 .331.064.444.257.596 1.011 1.666 1.586 2.877 1.414 1.283-.18 2.123-.917 2.428-2.155.43-1.727-.827-3.286-2.433-3.453-1.261-.133-2.21.368-2.876 1.41-.087.136-.179.2-.344.188-.365-.021-.735-.009-1.096-.043-.619-.06-1.123-.625-1.123-1.238q-.006-3.301 0-6.602c0-.587.448-1.294 1.415-1.294.256 0 .513.013.765-.004.192-.013.3.055.4.219.357.595.867 1.028 1.532 1.246.98.317 1.91.202 2.733-.428a2.81 2.81 0 0 0 .509-3.976c-1.044-1.328-3.05-1.474-4.26-.296-.226.223-.391.51-.6.754a.44.44 0 0 1-.28.125c-.795.008-1.596 0-2.393.008-.465.005-.926.077-1.314.356-.552.399-.879.917-.879 1.611v2.665c0 .729-.583 1.307-1.314 1.302a1.3 1.3 0 0 1-1.3-1.293v-6.791c0-.724.486-1.247 1.226-1.307.018 0 .03-.004.048-.004.278 0 .592-.077.827.021.213.094.34.381.505.579.913 1.088 2.62 1.328 3.79.548a2.83 2.83 0 0 0 1.105-3.419c-.757-1.808-3.046-2.373-4.543-1.092-.252.219-.44.51-.67.758-.065.073-.174.146-.26.146-.597.013-1.197.004-1.798.009-.157 0-.23-.039-.23-.21.004-2.327 0-4.653.009-6.98 0-.098.074-.223.148-.295a5.52 5.52 0 0 1 3.272-1.603c1.854-.24 3.464.313 4.783 1.59 1.057 1.024 1.632 2.296 1.64 3.775-.004.582-.09 1.156-.135 1.76"/><path fill="#BFBFBF" d="M13.677 38.42c-.422-.243-.865-.44-1.243-.728a5.4 5.4 0 0 1-1.687-2.112 8.8 8.8 0 0 1-.643-2.078 7.3 7.3 0 0 1-.052-2.105 7.1 7.1 0 0 1 .925-2.797c.448-.772 1.034-1.423 1.804-1.898.226-.142.483-.236.726-.352.152-.073.183-.154.105-.317-.322-.677-.487-1.397-.578-2.138-.1-.818.047-1.607.265-2.382.208-.742.63-1.393 1.113-1.997a6 6 0 0 1 2.464-1.83 6.7 6.7 0 0 1 1.865-.442c.87-.085 1.704.026 2.59.292-.043-.214-.09-.399-.117-.583-.095-.668-.126-1.328-.012-2.005a5.4 5.4 0 0 1 .89-2.177 5.3 5.3 0 0 1 1.813-1.671c.618-.348 1.278-.566 1.978-.707.786-.159 1.56-.09 2.308.09s1.469.488 2.06 1.015c.083.073.187.116.274.189.304.244.479.514.47.951-.035 2.169-.013 4.337-.013 6.51q0 .316-.313.316c-.556 0-1.117-.004-1.673.004-.144 0-.24-.038-.31-.167-.303-.54-.769-.925-1.316-1.2-.53-.265-1.113-.295-1.692-.214-.534.077-1.03.292-1.416.66-.557.523-.94 1.149-.979 1.94-.034.657.1 1.273.492 1.8.39.528.9.913 1.569 1.114.8.24 1.543.12 2.252-.226.49-.24.834-.665 1.125-1.123.031-.047.078-.124.118-.124.434.017.89-.026 1.3.085.595.163.838.596.843 1.208.018 2.254.013 4.512.004 6.766-.004.947-.926 1.547-1.821 1.213-.435-.162-.8-.698-.8-1.187-.005-.878-.013-1.76.004-2.639.017-.874-.457-1.418-1.178-1.826-.313-.18-.661-.167-.991-.176-.796-.025-1.596-.008-2.391-.004-.17 0-.252-.055-.348-.21-.513-.814-1.225-1.345-2.234-1.452a2.76 2.76 0 0 0-1.434.205c-.774.343-1.33.921-1.609 1.732-.274.796-.165 1.576.24 2.288.312.548.777.968 1.395 1.22.76.31 1.512.279 2.242-.017.591-.24 1.07-.66 1.404-1.22a.46.46 0 0 1 .318-.19c.396-.008.8-.012 1.187.048.548.081.956.548.995 1.088.048.681.048 1.367.053 2.053.004.385-.04.775-.04 1.161 0 .472.035.943.04 1.414 0 .382-.03.759-.035 1.14-.004.262.018.527.022.789.009.368-.07.702-.318 1.003-.278.338-.63.463-1.06.445-.313-.012-.626.009-.944-.008a.31.31 0 0 1-.217-.138c-.408-.702-1.043-1.135-1.795-1.392-.282-.095-.613-.086-.921-.065-.73.043-1.37.326-1.882.845-.548.557-.86 1.234-.83 2.01.047 1.208.643 2.099 1.76 2.596.7.313 1.439.296 2.173.03.687-.248 1.148-.737 1.53-1.311.096-.142.174-.172.318-.172.774.005 1.547.013 2.32-.004.297-.008.605-.047.888-.137a1.86 1.86 0 0 0 1.238-1.22 2 2 0 0 0 .1-.614c.009-.878-.004-1.76.009-2.639.009-.583.304-1.037.83-1.238.595-.227 1.247-.047 1.608.587.17.3.187.608.187.93 0 2.146.004 4.289-.004 6.435 0 .57-.252 1.029-.796 1.247-.251.103-.56.06-.838.108-.422.072-.635-.129-.87-.464-.226-.32-.582-.578-.925-.792-.461-.292-.996-.386-1.552-.356a2.87 2.87 0 0 0-1.721.686c-.805.664-1.07 1.53-.991 2.515.043.536.29 1.007.639 1.436.404.497.926.805 1.539.942.912.202 1.742.06 2.486-.565.3-.248.539-.514.743-.831.044-.069.17-.12.257-.12.59-.009 1.178 0 1.769-.009.182-.004.256.056.252.244-.01.416-.004.832-.004 1.251 0 1.761-.018 3.523.012 5.28.01.454-.156.753-.482 1.028a5.6 5.6 0 0 1-1.682.994c-.43.158-.9.227-1.361.3-.535.081-1.065.055-1.604-.022a5.4 5.4 0 0 1-1.93-.668c-1.156-.656-1.951-1.62-2.434-2.845-.335-.849-.46-1.718-.326-2.618.04-.279.096-.553.14-.827.008-.052-.005-.103-.01-.155-2.63.677-4.941.198-6.746-1.868-1.812-2.065-1.973-4.384-.882-6.83z"/></g><rect width="63" height="63" x=".5" y=".804" stroke="#070B14" stroke-opacity=".15" rx="31.5"/><defs><clipPath id="0x0_ai_svg-a"><rect width="64" height="64" y=".304" fill="#fff" rx="32"/></clipPath></defs></svg>
